svgs/duotone/user-nurse.svg

<svg xmlns="http://www.w3.org/2000/svg" viewBox="0 0 448 512"><!--! Font Awesome Pro 6.6.0 by @fontawesome - https://fontawesome.com License - https://fontawesome.com/license (Commercial License) Copyright 2024 Fonticons, Inc. --><defs><style>.fa-secondary{opacity:.4}</style></defs><path class="fa-secondary" d="M96 160c85.3 0 170.6 0 256 0c0 70.7-57.3 128-128 128s-128-57.3-128-128z"/><path class="fa-primary" d="M96 70.2c0-13.3 8.3-25.3 20.8-30l96-36c7.2-2.7 15.2-2.7 22.5 0l96 36c12.5 4.7 20.8 16.6 20.8 30l0 89.8L96 160l0-89.8zm15.9 257.5c10.5-3.4 21.8 .4 29.4 8.5l71 75.5c6.3 6.7 17 6.7 23.3 0l71-75.5c7.6-8.1 18.9-11.9 29.4-8.5C401 348.5 448 409.4 448 481.3c0 17-13.8 30.7-30.7 30.7L30.7 512C13.8 512 0 498.2 0 481.3c0-71.9 47-132.7 111.9-153.6zM208 48l0 16-16 0c-4.4 0-8 3.6-8 8l0 16c0 4.4 3.6 8 8 8l16 0 0 16c0 4.4 3.6 8 8 8l16 0c4.4 0 8-3.6 8-8l0-16 16 0c4.4 0 8-3.6 8-8l0-16c0-4.4-3.6-8-8-8l-16 0 0-16c0-4.4-3.6-8-8-8l-16 0c-4.4 0-8 3.6-8 8z"/></svg>

<svg xmlns="http://www.w3.org/2000/svg" viewBox="0 0 448 512"><!--! Font Awesome Pro 6.4.0 by @fontawesome - https://fontawesome.com License - https://fontawesome.com/license (Commercial License) Copyright 2023 Fonticons, Inc. --><defs><style>.fa-secondary{opacity:.4}</style></defs><path class="fa-primary" d="M96 70.2c0-13.3 8.3-25.3 20.8-30l96-36c7.2-2.7 15.2-2.7 22.5 0l96 36c12.5 4.7 20.8 16.6 20.8 30V160H96V70.2zm15.9 257.5c10.5-3.4 21.8 .4 29.4 8.5l71 75.5c6.3 6.7 17 6.7 23.3 0l71-75.5c7.6-8.1 18.9-11.9 29.4-8.5C401 348.5 448 409.4 448 481.3c0 17-13.8 30.7-30.7 30.7H30.7C13.8 512 0 498.2 0 481.3c0-71.9 47-132.7 111.9-153.6zM208 48V64H192c-4.4 0-8 3.6-8 8V88c0 4.4 3.6 8 8 8h16v16c0 4.4 3.6 8 8 8h16c4.4 0 8-3.6 8-8V96h16c4.4 0 8-3.6 8-8V72c0-4.4-3.6-8-8-8H240V48c0-4.4-3.6-8-8-8H216c-4.4 0-8 3.6-8 8z"/><path class="fa-secondary" d="M96 160H352c0 70.7-57.3 128-128 128s-128-57.3-128-128z"/></svg>
